X: 116
M:6/8
L:1/8
K:G
uD|G(BB) TB2d|cAA A2c|BGG GFG|ABG "_4"AFD|\
uc|Bdd (d2.B)|gfe dcB|Bcd dcB|ABG "_4"AFD|\


